svgs/sharp-light/store-lock.svg

<svg xmlns="http://www.w3.org/2000/svg" viewBox="0 0 640 512"><!--! Font Awesome Pro 6.6.0 by @fontawesome - https://fontawesome.com License - https://fontawesome.com/license (Commercial License) Copyright 2024 Fonticons, Inc. --><path d="M579.6 103.8c14.4 22.8 15.6 49.9 6.7 72.6c-9-5.5-18.9-9.8-29.4-12.6c5.1-13 4.6-28.7-4.2-42.7L494.7 32 145.3 32 87.3 121.1c-18.5 29.5-.1 66.4 29.2 70.4c2.7 .3 5.4 .5 7.9 .5c16.6 0 31.3-7.2 41.5-18.4l23.7-26.3 23.7 26.3c10.2 11.2 24.9 18.4 41.4 18.4c16.6 0 31.3-7.2 41.4-18.4l23.7-26.3 23.7 26.3c10.2 11.2 24.9 18.4 41.4 18.4c16.6 0 31.3-7.2 41.4-18.4l23.7-26.2 23.7 26.1 .2 .2c-15 8.2-27.8 19.7-37.6 33.6c-14.4 10.4-32.1 16.7-51.5 16.7c-19.6 0-37.5-6.4-52-17c-4.8-3.5-9.2-7.5-13.2-11.9c-4 4.4-8.4 8.4-13.2 12c-14.4 10.6-32.4 17-52 17c-19.6 0-37.5-6.4-52-17c-4.8-3.5-9.2-7.5-13.2-11.9c-4 4.4-8.4 8.4-13.2 11.9c-14.4 10.6-32.4 17-52 17c-4.1 0-8.2-.3-12.1-.8c-55.3-7.4-81.5-72.6-51.9-119.4L128 0 512 0l67.6 103.8zM128 352l256 0 0 32-256 0 0 96 256 0 0 32-256 0-32 0 0-32 0-96 0-32 0-96 32 0 0 96zM528 224c-26.5 0-48 21.5-48 48l0 48 96 0 0-48c0-26.5-21.5-48-48-48zm-80 48c0-44.2 35.8-80 80-80s80 35.8 80 80l0 48 32 0 0 32 0 128 0 32-32 0-160 0-32 0 0-32 0-128 0-32 32 0 0-48zm0 80l0 128 160 0 0-128-160 0z"/></svg>

<svg xmlns="http://www.w3.org/2000/svg" viewBox="0 0 640 512"><!--! Font Awesome Pro 6.5.2 by @fontawesome - https://fontawesome.com License - https://fontawesome.com/license (Commercial License) Copyright 2024 Fonticons, Inc. --><path d="M579.6 103.8c14.4 22.8 15.6 49.9 6.7 72.6c-9-5.5-18.9-9.8-29.4-12.6c5.1-13 4.6-28.7-4.2-42.7L494.7 32H145.3L87.3 121.1c-18.5 29.5-.1 66.4 29.2 70.4c2.7 .3 5.4 .5 7.9 .5c16.6 0 31.3-7.2 41.5-18.4l23.7-26.3 23.7 26.3c10.2 11.2 24.9 18.4 41.4 18.4c16.6 0 31.3-7.2 41.4-18.4l23.7-26.3 23.7 26.3c10.2 11.2 24.9 18.4 41.4 18.4c16.6 0 31.3-7.2 41.4-18.4l23.7-26.2 23.7 26.1 .2 .2c-15 8.2-27.8 19.7-37.6 33.6c-14.4 10.4-32.1 16.7-51.5 16.7c-19.6 0-37.5-6.4-52-17c-4.8-3.5-9.2-7.5-13.2-11.9c-4 4.4-8.4 8.4-13.2 12c-14.4 10.6-32.4 17-52 17c-19.6 0-37.5-6.4-52-17c-4.8-3.5-9.2-7.5-13.2-11.9c-4 4.4-8.4 8.4-13.2 11.9c-14.4 10.6-32.4 17-52 17c-4.1 0-8.2-.3-12.1-.8c-55.3-7.4-81.5-72.6-51.9-119.4L128 0H512l67.6 103.8zM128 352H384l0 32H128v96H384l0 32H128 96V480 384 352 256h32v96zM528 224c-26.5 0-48 21.5-48 48v48h96V272c0-26.5-21.5-48-48-48zm-80 48c0-44.2 35.8-80 80-80s80 35.8 80 80v48h32v32V480v32H608 448 416V480 352 320h32V272zm0 80V480H608V352H448z"/></svg>
